Numix-Light/16/status/indicator-keyboard-In-2.svg

<?xml version="1.0" encoding="UTF-8" standalone="no"?>
<svg
   xmlns:dc="http://purl.org/dc/elements/1.1/"
   xmlns:cc="http://creativecommons.org/ns#"
   xmlns:rdf="http://www.w3.org/1999/02/22-rdf-syntax-ns#"
   xmlns:svg="http://www.w3.org/2000/svg"
   xmlns="http://www.w3.org/2000/svg"
   xmlns:sodipodi="http://sodipodi.sourceforge.net/DTD/sodipodi-0.dtd"
   xmlns:inkscape="http://www.inkscape.org/namespaces/inkscape"
   viewBox="0 0 16 16"
   id="svg2"
   version="1.1"
   inkscape:version="0.91 r13725"
   sodipodi:docname="indicator-keyboard-In-2.svg">
  <metadata
     id="metadata14">
    <rdf:RDF>
      <cc:Work
         rdf:about="">
        <dc:format>image/svg+xml</dc:format>
        <dc:type
           rdf:resource="http://purl.org/dc/dcmitype/StillImage" />
      </cc:Work>
    </rdf:RDF>
  </metadata>
  <defs
     id="defs12" />
  <sodipodi:namedview
     pagecolor="#ffffff"
     bordercolor="#666666"
     borderopacity="1"
     objecttolerance="10"
     gridtolerance="10"
     guidetolerance="10"
     inkscape:pageopacity="0"
     inkscape:pageshadow="2"
     inkscape:window-width="640"
     inkscape:window-height="480"
     id="namedview10"
     showgrid="false"
     inkscape:zoom="14.75"
     inkscape:cx="8"
     inkscape:cy="8"
     inkscape:window-x="65"
     inkscape:window-y="24"
     inkscape:window-maximized="0"
     inkscape:current-layer="svg2" />
  <path
     style="fill:#353535;fill-opacity:1"
     d="M 1.5996094 0 C 0.71320937 2.9605947e-16 0 0.71320937 0 1.5996094 L 0 14.400391 C 2.9605947e-16 15.286791 0.71320937 16 1.5996094 16 L 14.400391 16 C 15.286791 16 16 15.286791 16 14.400391 L 16 1.5996094 C 16 0.71320937 15.286791 0 14.400391 0 L 1.5996094 0 z M 3.328125 4.859375 L 3.9394531 4.859375 L 3.9394531 11.095703 L 3.328125 11.095703 L 3.328125 4.859375 z M 7.3046875 6.3535156 C 7.6586875 6.3535156 7.9535 6.4038594 8.1875 6.5058594 C 8.4275 6.6078594 8.6159063 6.7552656 8.7539062 6.9472656 C 8.8979063 7.1332656 9.0005469 7.3570937 9.0605469 7.6210938 C 9.1205469 7.8850937 9.1503906 8.1761406 9.1503906 8.4941406 L 9.1503906 11.095703 L 8.5664062 11.095703 L 8.5664062 8.6835938 C 8.5664062 8.3535938 8.5421406 8.0756562 8.4941406 7.8476562 C 8.4521406 7.6196563 8.3775312 7.4330625 8.2695312 7.2890625 C 8.1675312 7.1450625 8.0294688 7.0424219 7.8554688 6.9824219 C 7.6874687 6.9164219 7.4728438 6.8847656 7.2148438 6.8847656 C 6.9388437 6.8847656 6.7000938 6.8996875 6.4960938 6.9296875 C 6.2980938 6.9596875 6.169375 6.9857656 6.109375 7.0097656 L 6.109375 11.095703 L 5.5234375 11.095703 L 5.5234375 6.6054688 C 5.6974375 6.5574688 5.9325625 6.5033594 6.2265625 6.4433594 C 6.5205625 6.3833594 6.8786875 6.3535156 7.3046875 6.3535156 z M 11.345703 8.7539062 C 11.739603 8.7539062 12.035475 8.851875 12.234375 9.046875 C 12.433275 9.237975 12.533203 9.5044563 12.533203 9.8476562 C 12.533203 9.9997563 12.505772 10.14475 12.451172 10.28125 C 12.396572 10.41385 12.322116 10.543169 12.228516 10.667969 C 12.138816 10.792769 12.034969 10.912297 11.917969 11.029297 C 11.800969 11.146297 11.681447 11.263859 11.560547 11.380859 C 11.459147 11.478359 11.361172 11.578288 11.263672 11.679688 C 11.170072 11.777188 11.083859 11.877116 11.005859 11.978516 C 10.931759 12.076016 10.871019 12.172031 10.824219 12.269531 C 10.781319 12.363131 10.759766 12.457181 10.759766 12.550781 L 10.759766 12.5625 L 12.671875 12.5625 L 12.671875 12.896484 L 10.337891 12.896484 C 10.337891 12.888684 10.335965 12.874969 10.332031 12.855469 L 10.332031 12.755859 C 10.332031 12.572559 10.365341 12.402094 10.431641 12.246094 C 10.497941 12.086194 10.582194 11.937275 10.683594 11.796875 C 10.788894 11.656475 10.904497 11.525197 11.029297 11.404297 C 11.157997 11.283397 11.281438 11.165834 11.398438 11.052734 C 11.495937 10.959134 11.586075 10.869003 11.671875 10.783203 C 11.761575 10.693503 11.83995 10.603366 11.90625 10.509766 C 11.97255 10.416166 12.025453 10.316237 12.064453 10.210938 C 12.103453 10.105638 12.123047 9.9900344 12.123047 9.8652344 C 12.123047 9.5922344 12.048591 9.39825 11.900391 9.28125 C 11.756091 9.16035 11.573863 9.0996094 11.351562 9.0996094 C 11.226762 9.0996094 11.115078 9.1152844 11.017578 9.1464844 C 10.920078 9.1776844 10.833866 9.2149125 10.759766 9.2578125 C 10.689566 9.2968125 10.628825 9.3379594 10.578125 9.3808594 C 10.527425 9.4237594 10.490197 9.4570688 10.466797 9.4804688 L 10.267578 9.2167969 C 10.290978 9.1894969 10.332125 9.1503094 10.390625 9.0996094 C 10.453025 9.0450094 10.529441 8.9921062 10.619141 8.9414062 C 10.712741 8.8907063 10.820506 8.8476 10.941406 8.8125 C 11.062306 8.7735 11.197503 8.7539063 11.345703 8.7539062 z "
     id="path4" />
</svg>

<svg xmlns="http://www.w3.org/2000/svg" viewBox="0 0 16 16">
 <path d="m 1.6 0 c -0.886 0 -1.6 0.713 -1.6 1.6 l 0 12.801 c 0 0.886 0.713 1.6 1.6 1.6 l 12.801 0 c 0.886 0 1.6 -0.713 1.6 -1.6 l 0 -12.801 c 0 -0.886 -0.713 -1.6 -1.6 -1.6 l -12.801 0 z m 1.729 4.859 l 0.611 0 l 0 6.236 l -0.611 0 l 0 -6.236 z m 3.977 1.494 c 0.354 0 0.649 0.05 0.883 0.152 c 0.24 0.102 0.428 0.249 0.566 0.441 c 0.144 0.186 0.247 0.41 0.307 0.674 c 0.06 0.264 0.09 0.555 0.09 0.873 l 0 2.602 l -0.584 0 l 0 -2.412 c 0 -0.33 -0.024 -0.608 -0.072 -0.836 c -0.042 -0.228 -0.117 -0.415 -0.225 -0.559 c -0.102 -0.144 -0.24 -0.247 -0.414 -0.307 c -0.168 -0.066 -0.383 -0.098 -0.641 -0.098 c -0.276 0 -0.515 0.015 -0.719 0.045 c -0.198 0.03 -0.327 0.056 -0.387 0.08 l 0 4.086 l -0.586 0 l 0 -4.49 c 0.174 -0.048 0.409 -0.102 0.703 -0.162 c 0.294 -0.06 0.652 -0.09 1.078 -0.09 z m 4.04 2.4 c 0.394 0 0.69 0.098 0.889 0.293 c 0.199 0.191 0.299 0.458 0.299 0.801 c 0 0.152 -0.027 0.297 -0.082 0.434 c -0.055 0.133 -0.129 0.262 -0.223 0.387 c -0.09 0.125 -0.194 0.244 -0.311 0.361 c -0.117 0.117 -0.237 0.235 -0.357 0.352 c -0.101 0.098 -0.199 0.197 -0.297 0.299 c -0.094 0.098 -0.18 0.197 -0.258 0.299 c -0.074 0.097 -0.135 0.194 -0.182 0.291 c -0.043 0.094 -0.064 0.188 -0.064 0.281 l 0 0.012 l 1.912 0 l 0 0.334 l -2.334 0 c 0 -0.008 -0.002 -0.022 -0.006 -0.041 l 0 -0.1 c 0 -0.183 0.033 -0.354 0.1 -0.51 c 0.066 -0.16 0.151 -0.309 0.252 -0.449 c 0.105 -0.14 0.221 -0.272 0.346 -0.393 c 0.129 -0.121 0.252 -0.238 0.369 -0.352 c 0.097 -0.094 0.188 -0.184 0.273 -0.27 c 0.09 -0.09 0.168 -0.18 0.234 -0.273 c 0.066 -0.094 0.119 -0.194 0.158 -0.299 c 0.039 -0.105 0.059 -0.221 0.059 -0.346 c 0 -0.273 -0.074 -0.467 -0.223 -0.584 c -0.144 -0.121 -0.327 -0.182 -0.549 -0.182 c -0.125 0 -0.236 0.016 -0.334 0.047 c -0.098 0.031 -0.184 0.068 -0.258 0.111 c -0.07 0.039 -0.131 0.08 -0.182 0.123 c -0.051 0.043 -0.088 0.076 -0.111 0.1 l -0.199 -0.264 c 0.023 -0.027 0.065 -0.066 0.123 -0.117 c 0.062 -0.055 0.139 -0.108 0.229 -0.158 c 0.094 -0.051 0.201 -0.094 0.322 -0.129 c 0.121 -0.039 0.256 -0.059 0.404 -0.059 z" style="fill:#353535;fill-opacity:1"/>
</svg>
